tools/download-figma-icons/icons/solid/medal.svg

<svg width="25" height="24" viewBox="0 0 25 24" fill="none" xmlns="http://www.w3.org/2000/svg">
<path d="M11.9968 9.18224C7.92426 9.18224 4.61065 12.5034 4.61065 16.5909C4.61065 20.6784 7.92426 23.9996 11.9968 23.9996C16.0693 23.9996 19.3829 20.6784 19.3829 16.5909C19.3829 12.5034 16.0693 9.18224 11.9968 9.18224ZM15.4081 16.2002L14.0255 17.5527L14.3486 19.4612C14.3787 19.634 14.311 19.7993 14.1683 19.9045C14.0255 20.0022 13.8452 20.0172 13.6949 19.9346L11.9968 19.0329L10.2986 19.9346C10.231 19.9721 10.1634 19.9872 10.0882 19.9872C9.99808 19.9872 9.9004 19.9571 9.82526 19.897C9.6825 19.7918 9.61487 19.6265 9.64493 19.4537L9.96803 17.5452L8.59299 16.1927C8.46526 16.0724 8.42769 15.8921 8.48028 15.7268C8.53288 15.5615 8.67564 15.4488 8.84846 15.4187L10.7495 15.1407L11.5985 13.405C11.6737 13.2547 11.8239 13.1571 12.0043 13.1496C12.1771 13.1496 12.3349 13.2472 12.41 13.3975L13.2591 15.1332L15.1601 15.4112C15.3254 15.4338 15.4682 15.554 15.5208 15.7118C15.5734 15.8696 15.5358 16.0499 15.4081 16.1776V16.2002Z" fill="black"/>
<path d="M7.06773 0.548511C6.86485 0.210388 6.48916 0 6.09093 0H1.13179C0.718525 0 0.35786 0.210388 0.154986 0.556025C-0.047888 0.901662 -0.0554018 1.32244 0.154986 1.6831L4.76849 9.79054C4.90374 10.031 5.13667 10.1963 5.41468 10.2339C5.45976 10.2339 5.50485 10.2414 5.54993 10.2414C5.77534 10.2414 5.99325 10.1587 6.16606 9.99342C7.23303 8.99408 8.55547 8.34037 9.99061 8.10744C10.2837 8.06236 10.5316 7.87451 10.6593 7.61153C10.7871 7.34854 10.7796 7.03296 10.6293 6.77749L7.06773 0.548511Z" fill="black"/>
<path d="M23.8835 0.556025C23.6807 0.210388 23.3125 0 22.9067 0H17.9401C17.5418 0 17.1662 0.210388 16.9558 0.571053L13.4393 6.75495C13.289 7.01793 13.2815 7.34103 13.4092 7.61904C13.5445 7.89705 13.8 8.0849 14.1005 8.1375C15.5056 8.37794 16.798 9.01662 17.8424 9.9859C18.0227 10.1512 18.2481 10.2414 18.4811 10.2414C18.5262 10.2414 18.5788 10.2414 18.6238 10.2339C18.9094 10.1888 19.1498 10.0235 19.2926 9.768L23.8835 1.69813C24.0789 1.34498 24.0789 0.924203 23.876 0.571053L23.8835 0.556025Z" fill="black"/>
</svg>

<svg xmlns="http://www.w3.org/2000/svg" width="25" height="24" fill="none" viewBox="0 0 25 24"><path fill="currentColor" d="M11.997 9.182c-4.073 0-7.386 3.321-7.386 7.409S7.924 24 11.997 24c4.072 0 7.386-3.322 7.386-7.41 0-4.087-3.314-7.408-7.386-7.408m3.411 7.018-1.383 1.353.324 1.908a.446.446 0 0 1-.654.474l-1.698-.902-1.698.902a.43.43 0 0 1-.473-.038.45.45 0 0 1-.181-.443l.323-1.909-1.375-1.352a.45.45 0 0 1-.113-.466.46.46 0 0 1 .368-.308l1.901-.278.85-1.736a.47.47 0 0 1 .405-.255c.173 0 .33.097.406.248l.85 1.735 1.9.278a.45.45 0 0 1 .248.767zM7.068.549A1.15 1.15 0 0 0 6.09 0H1.13C.72 0 .359.21.156.556s-.21.766 0 1.127l4.613 8.108c.136.24.369.405.647.443.045 0 .09.007.135.007a.88.88 0 0 0 .616-.248 7.3 7.3 0 0 1 3.825-1.886.896.896 0 0 0 .638-1.33zm16.816.007A1.13 1.13 0 0 0 22.907 0H17.94c-.398 0-.774.21-.984.571l-3.517 6.184a.95.95 0 0 0-.03.864.94.94 0 0 0 .691.518c1.406.24 2.698.88 3.742 1.849.18.165.406.255.64.255.044 0 .097 0 .142-.007a.92.92 0 0 0 .669-.466l4.59-8.07a1.14 1.14 0 0 0-.007-1.127z"/></svg>
